X:19
T:Wohlfahrt 19 (Op 74 No 6 )
C:Franz Wohlfahrt / K.H. Aiquoni
L:1/8
Q:1/4=100
M:12/8
I:linebreak $
K:C
"^19""C" cBc dcB ced cEF |"C" G^FG AGF GEA GEC |"G7" G,=FE FG,_A, G,FE FG,A, |$ 
"G7" G,FE Fdc Bag fdB |"C" cBc dcB ced cEF |"C" G^FG AGF GEA GE^C |$"A7" A,G^F GA,_B, A,GF GA,B, | 
"A7" A,G^F Ged ^c_ba gec |"Dm" d^cd edc dFG AFD |$"G" G^FG AGF GB,C DB,G, | 
"C" CB,C"G7" DCB,"C" CEA"D7" ^FEF |"G" G^FG"D7" AGF"G" GDE"G7" =FA,B, ||$"C" CB,C DCB, CEG AG^F | 
"C" Ged cE=F"G7" GAG FA,B, |"C" CB,C"G7" DCB,"C" CAG"G7" Fdc |$"G" Bag ^fga"G" gBc ded | 
"G7" =fg"Cn/c"f baf dBG FBe ||"C" cBc"G7" =dcB"C" ce=d cEF |$"C" G=c=e dBc"Adim" Ac_e dBc | 
"C" Gc=e dBc"G7" baf dBG |"C" cBc"G7" dcB"C" ced cEF |$"C" G^FG AGF"G" GG,A, B,A,B, | 
"C" CB,C"G7" DCB,"C" CG,A,"G7" B,A,B, |"C" C2 z2 z8 |] 



